X:1
T:Blarens polka
C:Ola Olsson
O:Kyrkhult, Blekinge
R:Polka
M:2/4
L:1/8
Z:Andy Davey 2018
K:G
Q:1/2=60
B,D E/D/D | GA B/G/G | Ec c/A/F | Dd d/B/G | B,D E/D/D | GA B/G/G | Ec c/A/F | GG G2!fine! | 
|:dd d/e/d | gab z | BB B/c/B | efg z | AA A/B/A | def z | ee e/^c/A |[1 ddd z :|[2 dd dc!D.C.!|

